!!!COM: Music21
!!!OTL: slide_Johnny-Murphys
!!!OMV: slide_Johnny-Murphys
**kern
*clefG2
*k[f#]
*G:
*M12/8
=1
4b
8cc
=
4dd
8b
4gg
8b
4dd
8cc
4a
8b
=
4cc
8cc
8ccL
8ff#
8eeJ
4.dd
4b
8cc
=
4dd
8b
4gg
8b
4dd
8cc
4a
8b
=
4cc
8ee
8ddL
8cc#X
8ddJ
4.g
4.ryy
!!linebreak:original
=||
*M12/8
4b
8cc
=
4dd
8b
4gg
8b
4dd
8cc
4a
8b
=
4cc
8cc
8ccL
8ff#
8eeJ
4.dd
4b
8cc
=
4dd
8b
4gg
8b
4dd
8cc
4a
8b
=
4cc
8ee
8ddL
8cc#X
8ddJ
4.g
4.ryy
=||
4b
8cc
1ryy
8ryy
!!linebreak:original
=
4dd
8gg
8ggL
8ff#
8ggJ
8aaL
8gg
8eeJ
4dd
8b
=
4cc
8cc
8ccL
8ff#
8eeJ
4.dd
8ddL
8b
8ccJ
=
4dd
8gg
8ggL
8ff#
8ggJ
8aaL
8gg
8eeJ
4dd
8b
=
4cc
8a
8ddL
8cc#X
8ddJ
4.g
4.ryy
=||
4b
8cc
1ryy
8ryy
!!linebreak:original
=
4dd
8gg
8ggL
8ff#
8ggJ
8aaL
8gg
8eeJ
4dd
8b
=
4cc
8cc
8ccL
8ff#
8eeJ
4.dd
8ddL
8b
8ccJ
=
4dd
8gg
8ggL
8ff#
8ggJ
8aaL
8gg
8eeJ
4dd
8b
=
4cc
8a
8ddL
8cc#X
8ddJ
4.g
4.ryy
=||
*-
